assets/images/members/keyfactor/keyfactor.svg

<svg viewBox="0 0 720 103" fill="none" xmlns="http://www.w3.org/2000/svg">
<path d="M0.177734 100.739V10.0216H13.1374V31.5347C13.1374 36.8913 12.9214 41.1248 12.4894 44.2351C12.1438 47.259 11.4958 49.851 10.5455 52.0109L12.2302 53.6957L53.0531 10.0216H70.5487L31.2809 50.4558L28.3002 53.5661L9.24949 73.0055L13.1374 63.6746V100.739H0.177734ZM60.0513 100.739L23.1163 53.8253L32.0585 44.7535L77.0285 100.739H60.0513Z" fill="#1A1A1A"/>
<path d="M84.7547 100.739V30.5884C84.7547 19.2297 93.9628 10.0216 105.322 10.0216H148.905V21.9445H97.7143V47.8638H135.557V59.6571H97.7143V88.8163H148.905V100.739H84.7547Z" fill="#1A1A1A"/>
<path d="M186.949 100.739V62.7674L154.031 10.0216H169.583L185.523 36.4593C187.337 39.5696 188.806 42.4208 189.929 45.0127C191.053 47.6046 191.873 50.067 192.392 52.3997H194.724C194.984 51.3629 195.329 50.2398 195.761 49.0302C196.193 47.8206 196.668 46.5679 197.187 45.2719C197.705 43.8895 198.31 42.464 199.001 40.9952C199.779 39.5264 200.599 37.9713 201.463 36.3297L216.367 10.0216H231.789L199.908 62.249V100.739H186.949Z" fill="#1A1A1A"/>
<path d="M237.81 100.739V30.5884C237.81 19.2297 247.018 10.0216 258.377 10.0216H303.775V21.9445H250.77V50.7149H292.5V62.5082H250.77V100.739H237.81Z" fill="#1A1A1A"/>
<path d="M296.493 100.739L330.577 10.0216H348.461L381.897 100.739H367.382L345.999 40.2176C345.135 37.8849 344.401 35.7249 343.796 33.7378C343.191 31.7506 342.63 29.8931 342.111 28.1651C341.679 26.7828 341.29 25.4436 340.945 24.1477C340.686 22.7653 340.47 21.3829 340.297 20.0006H337.964C337.705 21.4693 337.402 22.9381 337.057 24.4068C336.711 25.8756 336.322 27.4308 335.891 29.0723C335.372 30.7139 334.811 32.485 334.206 34.3858C333.601 36.2001 332.91 38.1441 332.132 40.2176L310.49 100.739H296.493ZM314.766 76.7638L318.913 64.841H359.088L363.235 76.7638H314.766Z" fill="#1A1A1A"/>
<path d="M426.013 102.554C416.855 102.554 408.906 100.437 402.167 96.2033C395.428 91.9698 390.287 86.2244 386.745 78.967C383.289 71.7096 381.561 63.5882 381.561 54.6028C381.561 45.8767 383.419 37.9713 387.134 30.8867C390.935 23.8021 396.206 18.2726 402.945 14.2983C409.684 10.2376 417.373 8.20728 426.013 8.20728C433.357 8.20728 439.793 9.50324 445.323 12.0952C450.852 14.6871 455.302 18.0134 458.671 22.0741C462.041 26.1348 464.417 30.4547 465.799 35.0338L452.839 39.6992C451.802 36.5025 450.247 33.4354 448.174 30.4979C446.187 27.5604 443.336 25.098 439.62 23.1109C435.905 21.0373 431.369 20.0006 426.013 20.0006C419.965 20.0006 414.608 21.3829 409.943 24.1477C405.364 26.9124 401.778 30.8867 399.186 36.0705C396.681 41.2544 395.428 47.3886 395.428 54.4732C395.428 61.5579 396.681 67.8649 399.186 73.3943C401.778 78.8374 405.364 83.1141 409.943 86.2244C414.608 89.2483 419.965 90.7603 426.013 90.7603C433.875 90.7603 439.88 88.9027 444.027 85.1876C448.174 81.3861 451.241 76.3319 453.228 70.0248L465.928 74.9495C464.373 80.1334 461.825 84.7988 458.282 88.9459C454.826 93.093 450.377 96.4193 444.934 98.9249C439.491 101.344 433.184 102.554 426.013 102.554Z" fill="#1A1A1A"/>
<path d="M500.181 100.739V21.9445H468.042V10.0216H546.188V21.9445H513.141V100.739H500.181Z" fill="#1A1A1A"/>
<path d="M594.404 102.554C585.765 102.554 577.945 100.61 570.947 96.7217C564.035 92.7474 558.592 87.1748 554.618 80.0038C550.73 72.8328 548.786 64.625 548.786 55.3804C548.786 46.1359 550.773 37.9713 554.748 30.8867C558.722 23.7157 564.165 18.143 571.077 14.1687C577.989 10.1944 585.765 8.20728 594.404 8.20728C603.044 8.20728 610.777 10.1944 617.602 14.1687C624.514 18.143 629.914 23.7157 633.802 30.8867C637.689 37.9713 639.633 46.1359 639.633 55.3804C639.633 64.625 637.689 72.8328 633.802 80.0038C629.914 87.1748 624.514 92.7474 617.602 96.7217C610.777 100.61 603.044 102.554 594.404 102.554ZM594.275 90.7603C600.754 90.7603 606.37 89.2483 611.122 86.2244C615.874 83.1141 619.503 78.8806 622.008 73.5239C624.6 68.1673 625.896 62.1194 625.896 55.3804C625.896 48.6414 624.6 42.5936 622.008 37.2369C619.503 31.8802 615.874 27.69 611.122 24.666C606.37 21.5557 600.754 20.0006 594.275 20.0006C587.795 20.0006 582.179 21.5557 577.427 24.666C572.675 27.69 569.003 31.8802 566.411 37.2369C563.906 42.5936 562.653 48.6414 562.653 55.3804C562.653 62.1194 563.906 68.1673 566.411 73.5239C569.003 78.8806 572.675 83.1141 577.427 86.2244C582.179 89.2483 587.795 90.7603 594.275 90.7603Z" fill="#1A1A1A"/>
<path d="M650.099 100.739V10.0216H688.849C694.983 10.0216 700.253 11.1016 704.659 13.2615C709.066 15.4215 712.392 18.359 714.638 22.0741C716.971 25.7892 718.138 29.9795 718.138 34.645C718.138 39.3104 717.101 43.2415 715.027 46.4383C713.04 49.635 710.362 52.1405 706.992 53.9549C703.623 55.6828 699.864 56.806 695.717 57.3244V59.6571C699.951 60.0027 703.32 60.9099 705.826 62.3786C708.418 63.761 710.448 65.7049 711.917 68.2105C713.386 70.716 714.509 73.9559 715.286 77.9302L719.822 100.739H705.696L702.068 79.0966C701.376 75.2087 700.21 72.1416 698.568 69.8952C697.013 67.5625 694.853 65.8777 692.089 64.841C689.41 63.8042 685.998 63.2858 681.85 63.2858H663.059V100.739H650.099ZM686.905 51.6221C692.175 51.6221 696.409 50.3694 699.605 47.8638C702.888 45.3583 704.53 41.6432 704.53 36.7185C704.53 31.7939 702.932 28.1219 699.735 25.7028C696.538 23.1973 692.261 21.9445 686.905 21.9445H663.059V51.6221H686.905Z" fill="#1A1A1A"/>
<path d="M193.116 19.8701L205.079 0.0581055H181.168L193.116 19.8701Z" fill="#1A1A1A"/>
</svg>

<svg xmlns="http://www.w3.org/2000/svg" fill="none" viewBox="0 0 720 103"><path fill="#1a1a1a" d="M.178 100.739V10.022h12.96v21.513q0 8.035-.649 12.7-.518 4.536-1.944 7.776l1.685 1.685 40.823-43.674H70.55L31.28 50.456l-2.98 3.11-19.052 19.44 3.888-9.331v37.064zm59.873 0L23.116 53.825l8.943-9.071 44.97 55.985zM84.755 100.739v-70.15c0-11.36 9.208-20.567 20.567-20.567h43.583v11.923h-51.19v25.919h37.842v11.793H97.714v29.16h51.191v11.922zM186.949 100.739V62.767l-32.918-52.745h15.552l15.94 26.437q2.721 4.666 4.406 8.554t2.463 7.387h2.332q.39-1.555 1.037-3.37.648-1.815 1.426-3.758a57 57 0 0 1 1.814-4.277 2021 2021 0 0 0 2.462-4.665l14.904-26.308h15.422l-31.881 52.227v38.49zM237.81 100.739v-70.15c0-11.36 9.208-20.567 20.567-20.567h45.398v11.923H250.77v28.77h41.73v11.793h-41.73v38.231zM296.493 100.739l34.084-90.717h17.884l33.436 90.717h-14.515l-21.383-60.521a116 116 0 0 1-2.203-6.48q-.907-2.98-1.685-5.573a98 98 0 0 1-1.166-4.017 69 69 0 0 1-.648-4.147h-2.333a80 80 0 0 1-.907 4.406 190 190 0 0 1-1.166 4.665q-.778 2.463-1.685 5.314a168 168 0 0 1-2.074 5.832l-21.642 60.521zm18.273-23.975 4.147-11.923h40.175l4.147 11.923zM426.013 102.554q-13.737 0-23.846-6.35-10.109-6.351-15.422-17.237-5.184-10.886-5.184-24.364 0-13.09 5.573-23.716 5.702-10.627 15.811-16.589 10.108-6.09 23.068-6.09 11.016 0 19.31 3.887t13.348 9.98 7.128 12.959l-12.96 4.665q-1.555-4.795-4.665-9.201-2.98-4.407-8.554-7.387Q434.047 20 426.013 20q-9.072 0-16.07 4.147-6.869 4.147-10.757 11.923-3.758 7.775-3.758 18.402t3.758 18.921q3.888 8.165 10.757 12.83 6.998 4.536 16.07 4.536 11.793 0 18.014-5.572 6.22-5.703 9.201-15.163l12.7 4.924q-2.332 7.776-7.646 13.997-5.184 6.22-13.348 9.979-8.164 3.629-18.921 3.629M500.181 100.739V21.945h-32.139V10.022h78.146v11.923h-33.047v78.794zM594.404 102.554q-12.96 0-23.457-5.832-10.368-5.962-16.329-16.718-5.832-10.757-5.832-24.624t5.962-24.493q5.961-10.757 16.329-16.718t23.327-5.962 23.198 5.962q10.368 5.961 16.2 16.718 5.83 10.627 5.831 24.493 0 13.867-5.831 24.624-5.832 10.755-16.2 16.718-10.238 5.832-23.198 5.832m-.129-11.794q9.719 0 16.847-4.536 7.128-4.665 10.886-12.7 3.888-8.035 3.888-18.144t-3.888-18.143q-3.758-8.035-10.886-12.571-7.128-4.665-16.847-4.665t-16.848 4.665q-7.128 4.536-11.016 12.57-3.758 8.036-3.758 18.144 0 10.11 3.758 18.144 3.888 8.035 11.016 12.7 7.128 4.536 16.848 4.536M650.099 100.739V10.022h38.75q9.201 0 15.81 3.24 6.61 3.24 9.979 8.812 3.5 5.573 3.5 12.571t-3.111 11.793q-2.98 4.796-8.035 7.517-5.054 2.592-11.275 3.37v2.332q6.35.519 10.109 2.722 3.888 2.073 6.091 5.831t3.369 9.72l4.536 22.809h-14.126l-3.628-21.642q-1.038-5.832-3.5-9.202-2.333-3.498-6.479-5.054-4.018-1.555-10.239-1.555h-18.791v37.453zm36.806-49.117q7.905 0 12.7-3.758 4.925-3.758 4.925-11.145 0-7.388-4.795-11.016-4.796-3.758-12.83-3.758h-23.846v29.677z"/><path fill="#1a1a1a" d="M193.116 19.87 205.079.058h-23.911z"/></svg>
